X:27
C:Page 13
T:White Cockade. MBe.27
S:Matthew Betham MS, Towcett Cumbria, 1815
O:England;Cumbria;Towcett
Z:VMP – Hugh Taylor, 2012
M:2/4
L:1/8
Q:1/4=100
R:.Reel
N:Well known in the district as a tune to play for Westmorland Style step dancing.
N:Not the same as White Cockade MBe.43 on page 22
K:G
G/A/”^bar line added”|BB {c}BA/G/|BBBg|dB (c/B/A/G/)|FA AG/A/|
(.B.B) (c/B/A/G/)|ABg>a|b/a/g/f/ e/f/g/e/|dBB:|
|:B/c/|dB gB|ddd>e|{e}d{c}}B {f}gf/g/|aAA G/A/|
(.B.B) (c/B/A/G/)|AB~g>a|b/a/g/f/ e/f/g/e/|dBB:|

